resources/svg/double-caret-up-circle-o.svg

<svg width="15" height="15" viewBox="0 0 15 15" fill="none" xmlns="http://www.w3.org/2000/svg">
<path d="M5.14645 6.14645L4.79289 6.5L5.5 7.20711L5.85355 6.85355L5.14645 6.14645ZM7.5 4.5L7.85355 4.14645L7.5 3.79289L7.14645 4.14645L7.5 4.5ZM9.14645 6.85355L9.5 7.20711L10.2071 6.5L9.85355 6.14645L9.14645 6.85355ZM5.14645 9.14645L4.79289 9.5L5.5 10.2071L5.85355 9.85355L5.14645 9.14645ZM7.5 7.5L7.85355 7.14645L7.5 6.79289L7.14645 7.14645L7.5 7.5ZM9.14645 9.85355L9.5 10.2071L10.2071 9.5L9.85355 9.14645L9.14645 9.85355ZM0.5 7.5H0H0.5ZM7.5 14.5V15V14.5ZM7.5 0.5V1V0.5ZM14.5 7.5H14H14.5ZM5.85355 6.85355L7.85355 4.85355L7.14645 4.14645L5.14645 6.14645L5.85355 6.85355ZM7.14645 4.85355L9.14645 6.85355L9.85355 6.14645L7.85355 4.14645L7.14645 4.85355ZM5.85355 9.85355L7.85355 7.85355L7.14645 7.14645L5.14645 9.14645L5.85355 9.85355ZM7.14645 7.85355L9.14645 9.85355L9.85355 9.14645L7.85355 7.14645L7.14645 7.85355ZM0 7.5C-5.96046e-08 11.6421 3.35786 15 7.5 15V14C3.91015 14 1 11.0899 1 7.5H0ZM7.5 0C3.35786 -5.96046e-08 5.96046e-08 3.35786 0 7.5H1C1 3.91015 3.91015 1 7.5 1V0ZM15 7.5C15 3.35786 11.6421 5.96046e-08 7.5 0V1C11.0899 1 14 3.91015 14 7.5H15ZM14 7.5C14 11.0899 11.0899 14 7.5 14V15C11.6421 15 15 11.6421 15 7.5H14Z" fill="black"/>
</svg>

<svg viewBox="0 0 15 15" fill="none" xmlns="http://www.w3.org/2000/svg" fill="currentColor"><path d="M5.146 6.146l-.353.354.707.707.354-.353-.708-.708zM7.5 4.5l.354-.354-.354-.353-.354.353.354.354zm1.646 2.354l.354.353.707-.707-.353-.354-.708.708zm-4 2.292l-.353.354.707.707.354-.353-.708-.708zM7.5 7.5l.354-.354-.354-.353-.354.353.354.354zm1.646 2.354l.354.353.707-.707-.353-.354-.708.708zM.5 7.5H0h.5zm7 7v.5-.5zm0-14V1 .5zm7 7H14h.5zm-8.646-.646l2-2-.708-.708-2 2 .708.708zm1.292-2l2 2 .708-.708-2-2-.708.708zm-1.292 5l2-2-.708-.708-2 2 .708.708zm1.292-2l2 2 .708-.708-2-2-.708.708zM0 7.5A7.5 7.5 0 007.5 15v-1A6.5 6.5 0 011 7.5H0zM7.5 0A7.5 7.5 0 000 7.5h1A6.5 6.5 0 017.5 1V0zM15 7.5A7.5 7.5 0 007.5 0v1A6.5 6.5 0 0114 7.5h1zm-1 0A6.5 6.5 0 017.5 14v1A7.5 7.5 0 0015 7.5h-1z" fill="currentColor"/></svg>
